flaticon/army-badges/medal-22.svg

<svg xmlns="http://www.w3.org/2000/svg" width="32" height="32" viewBox="0 0 24 24">
    <path d="M 17.878906 15.28125 C 17.800781 15.238281 17.679688 15.199219 17.558594 15.199219 L 15.082031 15.457031 C 14.910156 15.25 14.714844 15.058594 14.503906 14.886719 L 14.761719 12.441406 C 14.800781 12.320312 14.71875 12.199219 14.679688 12.121094 C 14.640625 12.039062 14.519531 12 14.398438 12 L 13.382812 12 C 13.519531 11.765625 13.601562 11.492188 13.601562 11.199219 C 13.601562 10.910156 13.519531 10.636719 13.382812 10.398438 L 16.800781 10.398438 C 17.039062 10.398438 17.199219 10.238281 17.199219 10 L 17.199219 8 C 17.199219 7.761719 17.039062 7.601562 16.800781 7.601562 L 16.398438 7.601562 L 16.398438 2.800781 L 16.800781 2.800781 C 17.039062 2.800781 17.199219 2.640625 17.199219 2.398438 L 17.199219 0.398438 C 17.199219 0.160156 17.039062 0 16.800781 0 L 7.199219 0 C 6.960938 0 6.800781 0.160156 6.800781 0.398438 L 6.800781 2.398438 C 6.800781 2.640625 6.960938 2.800781 7.199219 2.800781 L 7.601562 2.800781 L 7.601562 7.601562 L 7.199219 7.601562 C 6.960938 7.601562 6.800781 7.761719 6.800781 8 L 6.800781 10 C 6.800781 10.238281 6.960938 10.398438 7.199219 10.398438 L 10.617188 10.398438 C 10.480469 10.636719 10.398438 10.910156 10.398438 11.199219 C 10.398438 11.492188 10.480469 11.765625 10.617188 12 L 9.601562 12 C 9.480469 12 9.359375 12.078125 9.28125 12.121094 C 9.238281 12.199219 9.199219 12.320312 9.199219 12.441406 L 9.492188 14.890625 C 9.28125 15.058594 9.089844 15.25 8.917969 15.457031 L 6.441406 15.199219 C 6.320312 15.199219 6.199219 15.28125 6.121094 15.320312 C 6.039062 15.359375 6 15.480469 6 15.601562 L 6 20.398438 C 6 20.519531 6.039062 20.640625 6.121094 20.679688 C 6.199219 20.761719 6.320312 20.800781 6.398438 20.800781 L 6.441406 20.800781 L 8.917969 20.542969 C 9.078125 20.738281 9.261719 20.921875 9.457031 21.082031 L 9.199219 23.558594 C 9.199219 23.679688 9.238281 23.800781 9.320312 23.878906 C 9.359375 23.960938 9.480469 24 9.601562 24 L 14.398438 24 C 14.519531 24 14.640625 23.960938 14.679688 23.917969 C 14.761719 23.839844 14.800781 23.71875 14.800781 23.601562 L 14.539062 21.082031 C 14.816406 20.855469 15.058594 20.589844 15.265625 20.300781 L 17.519531 20.800781 C 17.558594 20.800781 17.558594 20.800781 17.601562 20.800781 C 17.679688 20.800781 17.761719 20.800781 17.839844 20.679688 C 17.960938 20.601562 18 20.480469 18 20.359375 L 18 15.558594 C 18 15.480469 17.960938 15.359375 17.878906 15.28125 Z M 15.195312 18.136719 C 15.195312 18.15625 15.195312 18.175781 15.195312 18.195312 C 15.191406 18.214844 15.191406 18.234375 15.1875 18.253906 C 15.175781 18.40625 15.152344 18.5625 15.117188 18.714844 C 15.113281 18.730469 15.109375 18.75 15.105469 18.765625 C 15.101562 18.78125 15.097656 18.796875 15.09375 18.8125 C 14.757812 20.078125 13.664062 21.042969 12.332031 21.183594 C 12.328125 21.183594 12.320312 21.183594 12.3125 21.183594 C 12.269531 21.1875 12.230469 21.191406 12.1875 21.195312 C 12.175781 21.195312 12.160156 21.195312 12.148438 21.195312 C 12.101562 21.199219 12.050781 21.199219 12 21.199219 C 11.949219 21.199219 11.898438 21.199219 11.851562 21.195312 C 11.839844 21.195312 11.824219 21.195312 11.8125 21.195312 C 11.769531 21.191406 11.730469 21.1875 11.6875 21.183594 C 11.679688 21.183594 11.671875 21.183594 11.667969 21.183594 C 10.117188 21.019531 8.890625 19.742188 8.804688 18.175781 C 8.804688 18.167969 8.804688 18.164062 8.804688 18.15625 C 8.800781 18.105469 8.800781 18.050781 8.800781 18 C 8.800781 17.949219 8.800781 17.894531 8.804688 17.84375 C 8.804688 17.835938 8.804688 17.832031 8.804688 17.824219 C 8.859375 16.847656 9.355469 15.984375 10.09375 15.433594 C 10.117188 15.425781 10.140625 15.414062 10.160156 15.398438 C 10.664062 15.027344 11.273438 14.828125 11.886719 14.804688 C 11.90625 14.800781 11.921875 14.800781 11.941406 14.800781 C 11.964844 14.800781 11.988281 14.800781 12.007812 14.800781 C 13.707031 14.804688 15.105469 16.148438 15.195312 17.824219 C 15.195312 17.832031 15.195312 17.835938 15.195312 17.84375 C 15.199219 17.894531 15.199219 17.949219 15.199219 18 C 15.199219 18.046875 15.199219 18.089844 15.195312 18.136719 Z M 8.398438 4.800781 L 15.601562 4.800781 L 15.601562 5.601562 L 8.398438 5.601562 Z M 7.601562 0.800781 L 16.398438 0.800781 L 16.398438 2 L 16 2 L 16 1.601562 C 16 1.359375 15.839844 1.199219 15.601562 1.199219 L 8.398438 1.199219 C 8.160156 1.199219 8 1.359375 8 1.601562 L 8 2 L 7.601562 2 Z M 8.800781 2.398438 L 8.800781 2 L 15.199219 2 L 15.199219 2.398438 C 15.199219 2.640625 15.359375 2.800781 15.601562 2.800781 L 15.601562 4 L 8.398438 4 L 8.398438 2.800781 C 8.640625 2.800781 8.800781 2.640625 8.800781 2.398438 Z M 8.398438 6.398438 L 15.601562 6.398438 L 15.601562 7.601562 C 15.359375 7.601562 15.199219 7.761719 15.199219 8 L 15.199219 8.398438 L 8.800781 8.398438 L 8.800781 8 C 8.800781 7.761719 8.640625 7.601562 8.398438 7.601562 Z M 7.601562 8.398438 L 8 8.398438 L 8 8.800781 C 8 9.039062 8.160156 9.199219 8.398438 9.199219 L 15.601562 9.199219 C 15.839844 9.199219 16 9.039062 16 8.800781 L 16 8.398438 L 16.398438 8.398438 L 16.398438 9.601562 L 7.601562 9.601562 Z M 11.199219 11.199219 C 11.199219 10.761719 11.558594 10.398438 12 10.398438 C 12.441406 10.398438 12.800781 10.761719 12.800781 11.199219 C 12.800781 11.640625 12.441406 12 12 12 C 11.558594 12 11.199219 11.640625 11.199219 11.199219 Z M 13.921875 12.800781 L 13.761719 14.398438 C 12.640625 13.839844 11.28125 13.839844 10.199219 14.398438 L 10.039062 12.800781 Z M 8.398438 19.839844 L 6.800781 20 L 6.800781 16.078125 L 8.375 16.316406 C 8.136719 16.828125 8 17.398438 8 18 C 8 18.011719 8 18.019531 8 18.03125 C 8 18.046875 8 18.0625 8 18.078125 C 8 18.679688 8.121094 19.28125 8.398438 19.839844 Z M 10.039062 23.199219 L 10.238281 21.601562 C 11.320312 22.160156 12.679688 22.160156 13.800781 21.601562 L 13.960938 23.199219 Z M 17.199219 19.878906 L 15.679688 19.558594 C 15.871094 19.109375 15.984375 18.621094 15.996094 18.105469 C 15.996094 18.082031 16 18.0625 16 18.039062 C 16 18.027344 16 18.011719 16 18 C 16 17.996094 16 17.992188 16 17.988281 C 16 17.976562 16 17.96875 16 17.960938 C 16 17.359375 15.878906 16.761719 15.601562 16.199219 L 17.199219 16.039062 Z M 17.199219 19.878906"/>
</svg>

<svg xmlns="http://www.w3.org/2000/svg" width="32" height="32" viewBox="0 0 24 24">
    <path d="M17.879 15.281a.703.703 0 0 0-.32-.082l-2.477.258a4.2 4.2 0 0 0-.578-.57l.258-2.446c.039-.12-.043-.242-.082-.32-.04-.082-.16-.121-.282-.121h-1.015c.137-.234.219-.508.219-.8 0-.29-.082-.563-.22-.802h3.419c.238 0 .398-.16.398-.398V8c0-.238-.16-.398-.398-.398h-.403V2.8h.403c.238 0 .398-.16.398-.403v-2C17.2.16 17.04 0 16.801 0H7.199c-.238 0-.398.16-.398.398v2c0 .243.16.403.398.403h.403v4.8h-.403c-.238 0-.398.16-.398.399v2c0 .238.16.398.398.398h3.418a1.608 1.608 0 0 0-.219.801c0 .293.082.567.22.801H9.601c-.122 0-.243.078-.32.121a.703.703 0 0 0-.083.32l.293 2.45c-.21.168-.402.359-.574.566l-2.477-.258c-.12 0-.242.082-.32.121-.082.04-.121.16-.121.282v4.796c0 .122.04.243.121.282.078.082.2.12.277.12h.043l2.477-.257c.16.195.344.379.539.539l-.258 2.477c0 .12.04.242.121.32.04.082.16.121.282.121h4.796c.122 0 .243-.04.282-.082a.44.44 0 0 0 .12-.316l-.26-2.52c.276-.227.519-.492.726-.781l2.254.5h.082c.078 0 .16 0 .238-.121.12-.078.16-.2.16-.32v-4.801c0-.079-.04-.2-.121-.278zm-2.684 2.856v.058c-.004.02-.004.04-.008.059a3.132 3.132 0 0 1-.07.46l-.012.052-.011.047a3.221 3.221 0 0 1-2.762 2.37h-.02l-.124.012h-.04c-.046.004-.097.004-.148.004-.05 0-.102 0-.148-.004h-.04l-.124-.011h-.02a3.215 3.215 0 0 1-2.863-3.008v-.02C8.8 18.106 8.8 18.051 8.8 18c0-.05 0-.105.004-.156v-.02a3.21 3.21 0 0 1 1.289-2.39.217.217 0 0 0 .066-.036 3.118 3.118 0 0 1 1.727-.593c.02-.004.035-.004.054-.004h.067a3.208 3.208 0 0 1 3.187 3.023v.02c.004.05.004.105.004.156 0 .047 0 .09-.004.137zM8.398 4.8h7.204v.8H8.398zm-.796-4h8.796V2H16v-.398c0-.243-.16-.403-.398-.403H8.398C8.16 1.2 8 1.36 8 1.602V2h-.398zM8.8 2.398V2h6.398v.398c0 .243.16.403.403.403V4H8.398V2.8c.243 0 .403-.16.403-.402zm-.403 4h7.204v1.204c-.243 0-.403.16-.403.398v.398H8.801V8c0-.238-.16-.398-.403-.398zm-.796 2H8v.403c0 .238.16.398.398.398h7.204c.238 0 .398-.16.398-.398v-.403h.398v1.204H7.602zm3.597 2.801c0-.437.36-.8.801-.8.441 0 .8.363.8.8a.802.802 0 0 1-1.6 0zm2.723 1.602l-.16 1.597c-1.121-.558-2.48-.558-3.563 0l-.16-1.597zM8.398 19.84L6.801 20v-3.922l1.574.238A3.98 3.98 0 0 0 8 18v.078c0 .602.121 1.203.398 1.762zm1.641 3.36l.2-1.598c1.081.558 2.44.558 3.562 0l.16 1.597zm7.16-3.321l-1.52-.32c.192-.45.305-.938.317-1.454 0-.023.004-.043.004-.066V18v-.012-.027c0-.602-.121-1.2-.398-1.762l1.597-.16zm0 0"/>
</svg>
